X:86
T:Rights of Man
M:4/4
L:1/8
K:G
|:G>A|"Em"(3BcB (3ABA (3GAG (3FGF|"Em"EFGA B2 e>f|g>fe>d e>dB>d|"Am"edBG "B7"A2 GA|!
"Em"(3BcB (3ABA (3GAG (3FGF|"Em"EFGA B2 e>f|g>fe>d B>gf>g|"B7"e>G "Em"E>G E2:|]!
[|:g>a|"Em"b2 bg efga|"Em"b>ab>g e2 fe|"D"d2d^c defg|a>fd>f a2 gf|!
"C"edef gfga|"Em"(3bag (3agf (3gfe (3def|g>fe>d B>gf>g|"B7"e>G "Em"E>G E2:|]

